X: 78
T: Sibao langong
%%abc-version 2.0
%%abcx-abcm2ps-target-version 5.9.1 (29 Sep 2008)
%%abc-creator hum2abc beta
%%abcx-conversion-date 2013/10/02 07:52:29
%%abc-edited-by Helmut Schaffrath
%%humdrum-veritas 3025765907
%%humdrum-veritas-data 564150420
%%continueall 1
%%barnumbers 0
L: 1/8
M: 4/4
K: C
G2G c A G E D [I:setbarnb 1]| 
d2>g2 e d c d | 
dg2d e> d c A | 
A G F DG4 | 
A GA2d> g d c | 
A G A c2<F2D | 
cd2g A> c G E | 
D8 |]  



